src/images/global/icons/utility/media/camera.svg

<?xml version="1.0" encoding="UTF-8"?>
<svg width="48px" height="48px" viewBox="0 0 48 48" version="1.1" xmlns="http://www.w3.org/2000/svg" xmlns:xlink="http://www.w3.org/1999/xlink">
    <!-- Generator: Sketch 46.2 (44496) - http://www.bohemiancoding.com/sketch -->
    <title>icon/Utility/Media/camera</title>
    <desc>Created with Sketch.</desc>
    <defs>
        <path d="M25.7833333,4.09090909 L21.5833333,4.09090909 C21.0620667,4.09090909 20.4104833,3.68659091 20.2297667,3.21034091 L19.6875,1.78011364 C19.3036667,0.768181818 18.1410833,0 17.0333333,0 L10.7333333,0 C9.6096,0 8.4994,0.794545455 8.16748333,1.84022727 L7.72975,3.22011364 C7.58006667,3.69125 7.03943333,4.09090909 6.53333333,4.09090909 L2.1,4.09090909 C0.8932,4.09090909 0,5.07465909 0,6.25 L0,17.8409091 C0,19.01625 0.8932,20 2.1,20 L25.7833333,20 C26.9900167,20 28,19.01625 28,17.8409091 L28,6.25 C28,5.07465909 26.9900167,4.09090909 25.7833333,4.09090909 L25.7833333,4.09090909 Z M14,17.2727273 C10.64945,17.2727273 7.93333333,14.6271591 7.93333333,11.3636364 C7.93333333,8.10011364 10.64945,5.45454545 14,5.45454545 C17.35055,5.45454545 20.0666667,8.10011364 20.0666667,11.3636364 C20.0666667,14.6271591 17.35055,17.2727273 14,17.2727273 Z M14,6.81818182 C11.4268,6.81818182 9.33333333,8.85727273 9.33333333,11.3636364 C9.33333333,13.87 11.4268,15.9090909 14,15.9090909 C16.5732,15.9090909 18.6666667,13.87 18.6666667,11.3636364 C18.6666667,8.85727273 16.5732,6.81818182 14,6.81818182 Z" id="path-1"></path>
    </defs>
    <g id="Symbols" stroke="none" stroke-width="1" fill="none" fill-rule="evenodd">
        <g id="icon/Utility/Media/camera">
            <g id="Icon" transform="translate(10.000000, 14.000000)">
                <mask id="mask-2" fill="white">
                    <use xlink:href="#path-1"></use>
                </mask>
                <use id="Mask" fill="#384048" xlink:href="#path-1"></use>
                <g id="Color/Grayscale/Night-Sky" mask="url(#mask-2)" fill="#111111">
                    <g transform="translate(-10.000000, -14.000000)" id="Swatch">
                        <rect x="0" y="0" width="48" height="48"></rect>
                    </g>
                </g>
            </g>
        </g>
    </g>
</svg>

<?xml version="1.0" encoding="utf-8"?>
<!-- Generator: Adobe Illustrator 21.0.2, SVG Export Plug-In . SVG Version: 6.00 Build 0)  -->
<svg version="1.1" id="icon_x2F_Utility_x2F_Media_x2F_camera-Layer_1" xmlns="http://www.w3.org/2000/svg" xmlns:xlink="http://www.w3.org/1999/xlink" x="0px" y="0px"
	 viewBox="0 0 48 48" style="enable-background:new 0 0 48 48;" xml:space="preserve">
<title>icon/Utility/Media/camera</title>
<desc>Created with Sketch.</desc>
<g id="icon_x2F_Utility_x2F_Media_x2F_camera-Symbols">
	<g id="icon_x2F_Utility_x2F_Media_x2F_camera">
		<g id="icon_x2F_Utility_x2F_Media_x2F_camera-Icon" transform="translate(10.000000, 14.000000)">
			<g id="icon_x2F_Utility_x2F_Media_x2F_camera-Mask">
				<path id="icon_x2F_Utility_x2F_Media_x2F_camera-path-1_1_" style="fill:#384048;" d="M25.8,4.1h-4.2c-0.5,0-1.2-0.4-1.4-0.9l-0.5-1.4C19.3,0.8,18.1,0,17,0h-6.3
					C9.6,0,8.5,0.8,8.2,1.8L7.7,3.2C7.6,3.7,7,4.1,6.5,4.1H2.1C0.9,4.1,0,5.1,0,6.3v11.6C0,19,0.9,20,2.1,20h23.7
					c1.2,0,2.2-1,2.2-2.2V6.3C28,5.1,27,4.1,25.8,4.1L25.8,4.1z M14,17.3c-3.4,0-6.1-2.6-6.1-5.9s2.7-5.9,6.1-5.9s6.1,2.6,6.1,5.9
					S17.4,17.3,14,17.3z M14,6.8c-2.6,0-4.7,2-4.7,4.5s2.1,4.5,4.7,4.5s4.7-2,4.7-4.5S16.6,6.8,14,6.8z"/>
			</g>
			<defs>
				<filter id="icon_x2F_Utility_x2F_Media_x2F_camera-Adobe_OpacityMaskFilter" filterUnits="userSpaceOnUse" x="-10" y="-14" width="48" height="48">
					<feColorMatrix  type="matrix" values="1 0 0 0 0  0 1 0 0 0  0 0 1 0 0  0 0 0 1 0"/>
				</filter>
			</defs>
			<mask maskUnits="userSpaceOnUse" x="-10" y="-14" width="48" height="48" id="icon_x2F_Utility_x2F_Media_x2F_camera-mask-2">
				<g style="filter:url(#icon_x2F_Utility_x2F_Media_x2F_camera-Adobe_OpacityMaskFilter);">
					<path id="icon_x2F_Utility_x2F_Media_x2F_camera-path-1" style="fill:#FFFFFF;" d="M25.8,4.1h-4.2c-0.5,0-1.2-0.4-1.4-0.9l-0.5-1.4C19.3,0.8,18.1,0,17,0h-6.3
						C9.6,0,8.5,0.8,8.2,1.8L7.7,3.2C7.6,3.7,7,4.1,6.5,4.1H2.1C0.9,4.1,0,5.1,0,6.3v11.6C0,19,0.9,20,2.1,20h23.7
						c1.2,0,2.2-1,2.2-2.2V6.3C28,5.1,27,4.1,25.8,4.1L25.8,4.1z M14,17.3c-3.4,0-6.1-2.6-6.1-5.9s2.7-5.9,6.1-5.9s6.1,2.6,6.1,5.9
						S17.4,17.3,14,17.3z M14,6.8c-2.6,0-4.7,2-4.7,4.5s2.1,4.5,4.7,4.5s4.7-2,4.7-4.5S16.6,6.8,14,6.8z"/>
				</g>
			</mask>
			<g id="icon_x2F_Utility_x2F_Media_x2F_camera-Color_x2F_Grayscale_x2F_Night-Sky" style="mask:url(#icon_x2F_Utility_x2F_Media_x2F_camera-mask-2);">
				<g id="icon_x2F_Utility_x2F_Media_x2F_camera-Swatch" transform="translate(-10.000000, -14.000000)">
					<rect style="fill:#111111;" width="48" height="48"/>
				</g>
			</g>
		</g>
	</g>
</g>
</svg>
